!! 00000] TT[WS
!!!OTL: Xiaomeme xinshang kailehua
!!!ARE: Asia, China,ÿShanxi Hequ
!! Ethnic Group: Han
!! WI, 34
!!!SCT: J0037
!!!YEM: Copyright 1995, estate of Helmut Schaffrath.
**kern
*ICvox
*Ivox
*M2/4
*k[]
*C:
{8dd
8dd
8gg
16cc
16cc
=1
8a
8g
8e
8d
=2
8dd
8dd
8gg
8cc
=3
2a}
=4
{8dd
8dd
8gg
8cc
=5
8a
8g
8e
8d
=6
8g
8g
8a
8e
=7
2d}
==
!!!AGN: Shange, Shanqu. Qingge
!!!ONB: ESAC (Essen Associative Code) Database: CHINA
!!!AMT: simple duple
!!!AIN: vox
!!!EED: Helmut Schaffrath
!!!EEV: 1.0
*-
